local/share/icons/dracula-icons-main/scalable/mimetypes/text-wiki.svg

<?xml version="1.0" encoding="UTF-8"?>
<svg xmlns="http://www.w3.org/2000/svg" xmlns:xlink="http://www.w3.org/1999/xlink" width="64" height="64" viewBox="0 0 64 64">
<defs>
<filter id="filter-remove-color" x="0%" y="0%" width="100%" height="100%">
<feColorMatrix color-interpolation-filters="sRGB" values="0 0 0 0 1 0 0 0 0 1 0 0 0 0 1 0 0 0 1 0" />
</filter>
<mask id="mask-0">
<g filter="url(#filter-remove-color)">
<rect x="-6.4" y="-6.4" width="76.8" height="76.8" fill="rgb(0%, 0%, 0%)" fill-opacity="0.1"/>
</g>
</mask>
<linearGradient id="linear-pattern-0" gradientUnits="userSpaceOnUse" x1="49.570999" y1="52.714001" x2="51.714001" y2="54.856998" gradientTransform="matrix(2.3333, 0, 0, 2.3333, -68.667, -72.000999)">
<stop offset="0" stop-color="rgb(0%, 0%, 0%)" stop-opacity="1"/>
<stop offset="1" stop-color="rgb(0%, 0%, 0%)" stop-opacity="0"/>
</linearGradient>
<clipPath id="clip-0">
<rect x="0" y="0" width="64" height="64"/>
</clipPath>
<g id="source-16752" clip-path="url(#clip-0)">
<path fill-rule="evenodd" fill="url(#linear-pattern-0)" d="M 56 46 L 42 60 L 51 60 C 53.769531 60 56 57.769531 56 55 Z M 56 46 "/>
</g>
</defs>
<path fill-rule="nonzero" fill="rgb(95.686275%, 95.686275%, 95.686275%)" fill-opacity="1" d="M 13 4 L 51 4 C 53.761719 4 56 6.238281 56 9 L 56 55 C 56 57.761719 53.761719 60 51 60 L 13 60 C 10.238281 60 8 57.761719 8 55 L 8 9 C 8 6.238281 10.238281 4 13 4 Z M 13 4 "/>
<g mask="url(#mask-0)">
<use xlink:href="#source-16752"/>
</g>
<path fill-rule="nonzero" fill="rgb(97.647059%, 71.764706%, 16.862745%)" fill-opacity="1" d="M 29.152344 21 C 26.351562 21 24.078125 23.273438 24.078125 26.078125 C 24.078125 28.878906 26.351562 31.152344 29.152344 31.152344 C 31.957031 31.152344 34.230469 28.878906 34.230469 26.078125 C 34.230469 23.273438 31.957031 21 29.152344 21 Z M 37.609375 24.292969 L 37.617188 24.296875 C 36.957031 24.296875 36.339844 24.449219 35.78125 24.703125 C 35.875 25.144531 35.921875 25.605469 35.921875 26.074219 C 35.921875 27.9375 35.15625 29.632812 33.921875 30.863281 C 34.699219 32.046875 36.050781 32.84375 37.609375 32.84375 C 40.035156 32.84375 42 30.929688 42 28.570312 C 42 26.207031 40.035156 24.292969 37.609375 24.292969 Z M 29.152344 34.53125 C 19 34.539062 19 41.308594 19 41.308594 L 19 43 L 39.308594 43 L 39.308594 41.308594 C 39.308594 41.308594 39.308594 34.523438 29.152344 34.539062 Z M 37.617188 34.535156 L 37.617188 34.539062 C 37.285156 34.539062 36.988281 34.558594 36.679688 34.574219 C 37.859375 35.25 38.761719 36.058594 39.394531 36.90625 C 40.984375 39.039062 41 41.304688 41 41.304688 L 46.078125 41.304688 L 46.078125 39.613281 C 46.078125 39.613281 46.078125 34.535156 37.617188 34.535156 Z M 37.617188 34.535156 "/>
</svg>

<svg width="64" height="64" version="1.1" viewBox="0 0 64 64" xmlns="http://www.w3.org/2000/svg">
 <defs>
  <linearGradient id="a" x1="49.571" x2="51.714" y1="52.714" y2="54.857" gradientTransform="matrix(2.3333,0,0,2.3333,-68.667,-72.001)" gradientUnits="userSpaceOnUse">
   <stop offset="0"/>
   <stop stop-opacity="0" offset="1"/>
  </linearGradient>
 </defs>
 <g transform="scale(1)">
  <rect x="8" y="4" width="48" height="56" ry="5" fill="#f4f4f4" style="paint-order:stroke fill markers"/>
  <path d="m56 46-14 14h9c2.77 0 5-2.23 5-5z" fill="url(#a)" fill-rule="evenodd" opacity=".1" stroke-width="8.8191" style="paint-order:stroke fill markers"/>
 </g>
 <path class="ColorScheme-Text" d="m29.154 21c-2.804 0-5.0768 2.2731-5.0768 5.0768s2.2729 5.0768 5.0768 5.0768c2.804 0 5.0768-2.2731 5.0768-5.0768s-2.2729-5.0768-5.0768-5.0768zm8.455 3.2921 0.0067 0.0066c-0.65708 0-1.2748 0.15112-1.8344 0.40325 0.09239 0.44346 0.14212 0.90215 0.14212 1.3717 0 1.8651-0.76866 3.5609-2.003 4.7895 0.77845 1.1846 2.1318 1.9799 3.6887 1.9799 2.4246 0 4.3893-1.9128 4.3893-4.2736 0-2.3608-1.9649-4.277-4.3893-4.277zm-8.455 10.24c-10.154 0.0057-10.154 6.7757-10.154 6.7757v1.6923h20.308v-1.6923s0-6.7863-10.154-6.7693zm8.4614 0.0033v0.0033c-0.33186 0-0.62904 0.02132-0.93538 0.03632 1.1805 0.67636 2.08 1.4843 2.7136 2.3302 1.5908 2.1323 1.6064 4.3995 1.6064 4.3995h5.0768v-1.6923s0-5.0768-8.4614-5.0768z" fill="#f9b72b" stroke-width="1.6923"/>
</svg>
